X:816
T:Reconciliation, The
S:Jim Johnstone & his Band, BBC Scotland, 1992
Z:Nigel Gatherer
M:4/4
L:1/8
K:A
a2 | A2 (3cBA eAfA   | eAfA ecBc | A2 (3cBA eAfA  | ecBc AFEF |
     A2 (3cBA eAfA   | eAfA ecBc | ABAF     EFAf  | ecBc A2  :|
cB | A2   ce  a2 af  | efed cdcB | A2   ce  a2 e2 | fbba gefg |
     agae   (3fga ec | dBcA BAFG | AB   AF  EFAf  | ecBc A2  :|
